swiss/communes/0099.svg

<?xml version="1.0" encoding="UTF-8" standalone="no"?>
<!-- Created with Inkscape (http://www.inkscape.org/) -->
<svg
   xmlns:svg="http://www.w3.org/2000/svg"
   xmlns="http://www.w3.org/2000/svg"
   version="1.0"
   width="218.14536"
   height="255.52328"
   id="svg2780">
  <defs
     id="defs2782" />
  <g
     transform="translate(-17.811271,-805.83571)"
     id="layer1">
    <path
       d="M 18.84677,806.87121 L 22.77539,971.90991 C 25.58154,1089.7947 228.18634,1089.7947 230.9925,971.90991 L 234.92112,806.87121 L 18.84677,806.87121 z "
       style="fill:#2a70c8;fill-opacity:1;fill-rule:evenodd;stroke:#000000;stroke-width:2.07099771;stroke-linecap:butt;stroke-miterlimit:4;stroke-dashoffset:0;stroke-opacity:1"
       id="path3282" />
    <path
       d="M 152.93379,936.94516 C 158.20244,944.63652 169.84673,948.77003 165.2732,956.5137 C 161.76486,962.45384 149.41284,985.43202 145.42956,985.06262 C 141.32268,984.68176 137.06502,992.44342 136.03432,994.39989 C 135.01748,996.33005 130.98729,1002.4426 132.41067,1002.9618 C 133.72704,1003.442 135.09402,1003.6276 135.40043,1002.8542 C 135.86778,1002.078 138.95452,994.76853 139.78423,993.65653 C 138.95452,994.76853 135.86778,1002.078 135.40043,1002.8542 C 135.09402,1003.6276 133.69602,1004.9574 133.92612,1007.0768 C 134.14953,1009.1346 145.38807,1009.1808 146.65197,1005.7236 C 147.62575,1003.0599 147.07335,995.19379 147.08195,993.46963 C 147.09119,991.61887 149.47588,991.18785 150.33331,992.01041 C 151.22262,992.86357 153.13582,994.48285 154.41436,991.02398 C 155.99911,986.73668 158.90736,980.1795 165.21087,972.03143 C 171.92356,963.35445 173.14725,958.02383 177.86187,955.64122 C 182.64656,953.22319 172.89932,949.8482 172.62958,939.70863"
       style="fill:#ffffff;fill-opacity:1;fill-rule:evenodd;stroke:#000000;stroke-width:1px;stroke-linecap:butt;stroke-linejoin:round;stroke-opacity:1"
       id="path3262" />
    <path
       d="M 98.252623,946.4948 C 96.442808,946.55884 62.636208,944.96484 61.371421,946.35724 C 60.075311,947.78412 55.604079,945.89056 57.312631,954.82957 C 59.02334,963.77986 63.078345,968.1432 63.96637,969.48097 C 64.838205,970.79436 63.570784,971.51445 61.777647,971.05057 C 60.042855,970.60178 60.255435,972.31707 61.348649,974.60304 C 62.441864,976.88901 69.042557,977.08455 70.728161,980.92719 C 72.403552,984.74655 73.436678,989.43284 71.349788,989.32672 C 69.200735,989.21743 68.267078,989.5168 67.64707,988.75904 C 66.99059,987.95674 62.933649,985.62424 62.328977,984.37551 C 62.933649,985.62424 66.99059,987.95674 67.64707,988.75904 C 68.267078,989.5168 68.043717,990.91875 65.252252,989.89158 C 62.5156,988.88457 59.552989,984.90265 58.252177,983.15641 C 56.951364,981.41016 53.779732,977.04537 53.9051,972.68854 C 54.030469,968.39402 49.301957,950.44985 49.229136,946.7309 C 49.156314,942.94963 50.477608,941.29137 53.358287,939.59236 C 56.211324,937.90966 64.409363,933.53578 77.677903,934.32283"
       style="fill:#ffffff;fill-opacity:1;fill-rule:evenodd;stroke:#000000;stroke-width:1px;stroke-linecap:butt;stroke-linejoin:round;stroke-opacity:1"
       id="path3316" />
    <path
       d="M 49.102452,851.45159 C 41.356922,850.96575 45.692069,861.05272 50.665945,857.36385 C 55.078939,854.92138 60.222704,854.19473 69.802195,854.41303 C 60.222704,854.19473 55.078939,854.92138 50.665945,857.36385 C 46.252951,859.80632 43.690993,864.7054 41.878811,870.39112 C 40.069914,876.06653 33.786147,887.48231 40.365411,887.64584 C 39.756361,891.2318 40.439576,894.22287 44.957241,894.29057 C 49.411249,894.35732 52.755102,893.34432 52.88045,889.66666 C 53.005798,885.92669 61.955561,880.7392 67.39676,879.82772 C 67.455516,880.91558 67.39608,883.61633 67.323747,884.96089 C 67.248072,886.36759 68.828172,886.94129 68.744586,888.08025 C 68.656452,889.28119 67.144705,889.48969 66.981904,891.60561 C 66.823869,893.65959 65.813149,895.76587 67.158172,898.65634 C 63.571817,902.84832 63.312671,907.1761 67.863245,911.70019 C 64.914303,915.80595 65.959919,919.54012 70.154731,922.98135 C 67.436992,924.70727 67.968632,930.29946 71.564876,930.38461 C 71.645462,933.44475 74.899617,935.64556 77.677903,934.32283 C 77.148106,938.5212 79.26253,939.98418 83.551112,939.19802 C 84.763289,942.02911 99.062711,940.37314 106.81851,940.9607 C 109.78703,944.38323 113.0564,944.49638 116.68953,940.60817 C 118.93757,944.02783 123.49302,944.2618 127.44189,939.55056 C 129.03187,942.75496 134.16392,941.90662 136.96037,939.02175 C 140.56734,941.07187 144.09566,940.9195 147.53646,938.31668 C 148.88602,940.99547 152.66605,940.86138 154.76345,938.14041 C 156.94825,940.53934 159.29701,940.56089 161.81418,938.14041 C 163.97746,939.78569 166.45235,939.68599 168.86491,936.90653 C 177.91334,937.49409 186.96177,938.08166 196.0102,938.66922 C 197.21373,941.48421 200.28687,946.29346 204.29481,944.3098 C 206.00586,944.9722 207.84156,944.01429 208.30621,942.30853 C 209.96034,942.68428 211.05358,940.62955 210.46419,939.19802 C 211.51294,937.68462 211.93849,935.92194 210.993,933.90998 C 211.41153,930.8956 208.71403,926.38553 205.14407,926.54948 C 206.06462,922.97605 206.98516,917.78231 205.97379,914.83208 C 206.1305,913.85817 205.66402,912.32339 204.76129,911.28716 C 205.02126,910.52333 204.845,908.63774 204.04553,907.99855 C 204.02954,906.9552 203.01643,905.16401 202.00332,904.12065 C 200.99561,900.22493 198.92845,897.45098 196.05114,894.55238 C 195.0808,893.28643 194.17278,890.96103 191.95604,891.25308 C 192.21785,889.81798 191.04629,887.69737 189.00224,888.38116 C 188.14585,886.50982 186.04305,884.82545 184.25186,885.57156 C 182.97175,882.38437 178.70028,881.75231 176.79697,882.92754 C 174.04256,881.0615 169.73016,880.8781 167.41199,882.68895 C 165.1704,881.12738 161.86937,881.24846 158.81762,882.61594 C 156.12197,881.61525 153.11472,880.98848 150.35675,882.79221 C 146.36307,881.88052 143.92739,882.83844 141.36707,884.73116 C 137.94496,884.00643 133.89966,883.96722 131.84859,886.67011 C 131.0436,884.55832 126.71092,882.69109 123.56399,886.31757 C 121.7836,882.29527 116.3263,881.57594 112.9879,884.90742 C 111.84669,882.2971 108.39963,881.24479 105.88737,883.93169 C 106.34684,880.0715 103.75261,878.57949 101.2207,878.58316 C 102.58517,875.14139 99.742903,870.64805 94.944388,870.83621 C 95.754756,866.72665 94.277108,864.2819 90.601838,864.28405 C 91.659692,860.63364 88.767832,856.42254 84.608721,856.70452 C 85.618283,854.81322 83.762511,852.30075 81.612162,852.12154 C 81.802142,849.32127 81.652266,846.67205 75.971581,846.48096 C 75.86703,843.67595 71.933034,842.5057 69.27339,845.24709 C 68.836703,842.12807 64.128059,839.68772 62.927736,844.01321 C 60.821393,842.03646 58.664463,840.94499 56.229546,844.71828 C 53.288681,844.11034 51.918422,845.42697 52.300018,847.80924 C 49.445816,847.09337 48.132401,849.70195 49.102452,851.45159 z "
       style="color:#000000;fill:#ffffff;fill-opacity:1;fill-rule:evenodd;stroke:#000000;stroke-width:1px;stroke-linecap:butt;stroke-linejoin:round;marker:none;marker-start:none;marker-mid:none;marker-end:none;stroke-miterlimit:4;stroke-dashoffset:0;stroke-opacity:1;visibility:visible;display:inline;overflow:visible;enable-background:accumulate"
       id="path3318" />
    <path
       d="M 62.927736,46.997648 C 66.827669,60.680464 76.654619,73.195504 82.846039,73.437873 C 84.895156,63.897358 79.937615,49.333201 69.802195,46.028174"
       transform="translate(0,804.33069)"
       style="opacity:1;color:#000000;fill:#ffffff;fill-opacity:1;fill-rule:evenodd;stroke:#000000;stroke-width:1px;stroke-linecap:round;stroke-linejoin:round;marker:none;marker-start:none;marker-mid:none;marker-end:none;stroke-miterlimit:4;stroke-dasharray:none;stroke-dashoffset:0;stroke-opacity:1;visibility:visible;display:inline;overflow:visible;enable-background:accumulate"
       id="path3325" />
    <path
       d="M 44.0759,89.783612 C 44.866512,87.135163 47.033358,84.086976 48.209344,82.515684"
       transform="translate(0,804.33069)"
       style="opacity:1;color:#000000;fill:none;fill-opacity:0.75;fill-rule:evenodd;stroke:#000000;stroke-width:1px;stroke-linecap:round;stroke-linejoin:miter;marker:none;marker-start:none;marker-mid:none;marker-end:none;stroke-miterlimit:4;stroke-dasharray:none;stroke-dashoffset:0;stroke-opacity:1;visibility:visible;display:inline;overflow:visible;enable-background:accumulate"
       id="path3327" />
    <path
       d="M 46.881069,873.04399 C 47.4224,870.27091 51.111505,865.85274 54.056436,864.24755"
       style="opacity:1;color:#000000;fill:none;fill-opacity:0.75;fill-rule:evenodd;stroke:#000000;stroke-width:1px;stroke-linecap:round;stroke-linejoin:miter;marker:none;marker-start:none;marker-mid:none;marker-end:none;stroke-miterlimit:4;stroke-dasharray:none;stroke-dashoffset:0;stroke-opacity:1;visibility:visible;display:inline;overflow:visible;enable-background:accumulate"
       id="path3329" />
    <path
       d="M 67.334441 69.780312 A 3.0406258 2.0824127 0 1 1  61.25319,69.780312 A 3.0406258 2.0824127 0 1 1  67.334441 69.780312 z"
       transform="matrix(0.5974288,-0.5324668,0.4103339,0.4603955,-15.426572,870.44599)"
       style="opacity:1;color:#000000;fill:none;fill-opacity:0.75;fill-rule:evenodd;stroke:#000000;stroke-width:1.42231417;stroke-linecap:butt;stroke-linejoin:miter;marker:none;marker-start:none;marker-mid:none;marker-end:none;stroke-miterlimit:4;stroke-dasharray:none;stroke-dashoffset:0;stroke-opacity:1;visibility:visible;display:inline;overflow:visible;enable-background:accumulate"
       id="path3331" />
    <path
       d="M 81.682021,1009.8793 C 82.998389,1010.3595 84.427691,1010.6697 84.734098,1009.8963 C 85.201443,1009.1201 88.412826,1004.2412 89.242539,1003.1292 C 88.412826,1004.2412 85.201443,1009.1201 84.734098,1009.8963 C 84.427691,1010.6697 84.194009,1013.4814 84.256922,1014.8668 C 84.323828,1016.3402 92.981346,1016.2871 93.991402,1013.7628 C 95.044176,1011.1316 96.404907,1003.8563 96.976508,1002.0075 C 97.523187,1000.2393 98.908304,999.44656 99.791613,999.55116 C 100.68093,999.65647 103.46662,1002.0236 103.56107,999.12561 C 103.70557,994.55707 102.89066,995.90008 103.07762,982.06499 C 103.26458,968.2299 104.08468,955.13029 104.57331,944.04966 C 105.06178,932.97256 100.81439,929.86296 95.601794,929.98668 C 90.386364,930.11048 85.823388,936.52427 87.248292,942.42934 C 88.653091,948.25109 90.580874,952.9568 93.729594,965.61245 C 96.82422,978.05068 97.790183,990.57138 95.137145,993.41353 C 92.442711,996.30003 86.509477,1002.254 85.056392,1003.6856 C 83.603307,1005.1172 80.258636,1009.3601 81.682021,1009.8793 z "
       style="fill:#ffffff;fill-opacity:1;fill-rule:evenodd;stroke:#000000;stroke-width:1px;stroke-linecap:butt;stroke-linejoin:round;stroke-opacity:1"
       id="path2284" />
    <path
       d="M 192.40901,900.52958 C 199.34675,902.7533 196.42903,928.26791 197.34347,935.75871 C 198.26851,943.33634 202.27654,948.42186 205.2479,948.10455 C 208.30638,947.77792 211.5868,949.73631 209.5394,952.42088 C 207.44925,955.1615 205.76785,962.55782 205.2972,970.48304 C 204.831,978.33328 205.14319,991.10262 204.365,992.50713 C 203.60099,993.88604 201.37534,992.71755 201.0211,991.63649 C 200.67242,990.57238 196.78637,994.00719 195.62061,995.57156 C 194.29127,997.35544 196.81923,1005.4038 195.10433,1008.3034 C 193.3735,1011.23 185.48987,1014.8715 184.91304,1011.9068 C 184.33837,1008.9533 185.02391,1007.3929 185.41079,1006.4935 C 185.82041,1005.5412 189.15184,999.59192 189.98155,998.47992 C 189.15184,999.59192 185.82041,1005.5412 185.41079,1006.4935 C 185.02391,1007.3929 183.86204,1008.6393 182.23407,1007.9721 C 180.62708,1007.3135 184.17236,1000.2153 185.54612,998.78704 C 186.88842,997.39145 191.67469,991.85567 194.81672,988.51497 C 197.92752,985.20748 201.75676,956.57097 196.96142,953.48475 C 192.19424,950.41665 184.4183,949.03731 173.33528,942.52558 C 162.22494,935.9978 164.57004,923.85693 159.44465,919.20864"
       style="fill:#ffffff;fill-opacity:1;fill-rule:evenodd;stroke:#000000;stroke-width:1px;stroke-linecap:round;stroke-linejoin:round;stroke-opacity:1"
       id="path3309" />
  </g>
</svg>

<svg xmlns="http://www.w3.org/2000/svg" version="1.0" width="218.145" height="255.523"><path d="m18.847 806.871 3.928 165.039c2.807 117.885 205.411 117.885 208.218 0l3.928-165.039H18.847z" style="fill:#2a70c8;fill-opacity:1;fill-rule:evenodd;stroke:#000;stroke-width:2.07099771;stroke-linecap:butt;stroke-miterlimit:4;stroke-dashoffset:0;stroke-opacity:1" transform="translate(-17.811 -805.836)"/><path d="M152.934 936.945c5.268 7.692 16.913 11.825 12.34 19.569-3.51 5.94-15.861 28.918-19.844 28.549-4.107-.381-8.365 7.38-9.396 9.337-1.017 1.93-5.047 8.043-3.623 8.562 1.316.48 2.683.666 2.99-.108.467-.776 3.554-8.085 4.383-9.197-.83 1.112-3.916 8.421-4.384 9.197-.306.774-1.704 2.103-1.474 4.223.224 2.058 11.462 2.104 12.726-1.353.974-2.664.421-10.53.43-12.254.01-1.851 2.394-2.282 3.251-1.46.89.854 2.803 2.473 4.081-.986 1.585-4.287 4.493-10.845 10.797-18.993 6.713-8.677 7.936-14.007 12.65-16.39 4.786-2.418-4.962-5.793-5.231-15.932M98.253 946.495c-1.81.064-35.617-1.53-36.882-.138-1.296 1.427-5.767-.466-4.058 8.473 1.71 8.95 5.765 13.313 6.653 14.651.872 1.313-.395 2.033-2.188 1.57-1.735-.45-1.523 1.266-.43 3.552 1.094 2.286 7.695 2.482 9.38 6.324 1.676 3.82 2.709 8.506.622 8.4-2.15-.11-3.083.19-3.703-.568-.656-.802-4.713-3.135-5.318-4.383.605 1.248 4.662 3.58 5.318 4.383.62.758.397 2.16-2.395 1.133-2.736-1.007-5.699-4.99-7-6.736-1.3-1.746-4.472-6.11-4.347-10.467.125-4.295-4.603-22.24-4.676-25.958-.073-3.781 1.249-5.44 4.13-7.139 2.852-1.682 11.05-6.056 24.319-5.27" style="fill:#fff;fill-opacity:1;fill-rule:evenodd;stroke:#000;stroke-width:1px;stroke-linecap:butt;stroke-linejoin:round;stroke-opacity:1" transform="translate(-17.811 -805.836)"/><path d="M49.102 851.452c-7.745-.486-3.41 9.6 1.564 5.912 4.413-2.443 9.557-3.17 19.136-2.951-9.58-.218-14.723.508-19.136 2.95-4.413 2.443-6.975 7.342-8.787 13.028-1.81 5.676-8.093 17.091-1.514 17.255-.609 3.586.075 6.577 4.592 6.645 4.454.066 7.798-.947 7.923-4.624.126-3.74 9.076-8.928 14.517-9.84.059 1.089 0 3.79-.073 5.134-.076 1.407 1.504 1.98 1.42 3.12-.088 1.2-1.6 1.409-1.762 3.525-.158 2.054-1.169 4.16.176 7.05-3.586 4.192-3.845 8.52.705 13.044-2.949 4.106-1.903 7.84 2.292 11.281-2.718 1.726-2.186 7.318 1.41 7.404.08 3.06 3.335 5.26 6.113 3.938-.53 4.198 1.585 5.661 5.873 4.875 1.212 2.831 15.512 1.175 23.268 1.763 2.968 3.422 6.237 3.535 9.87-.353 2.249 3.42 6.804 3.654 10.753-1.057 1.59 3.204 6.722 2.356 9.518-.53 3.607 2.05 7.136 1.899 10.576-.704 1.35 2.678 5.13 2.544 7.227-.177 2.185 2.4 4.534 2.42 7.051 0 2.163 1.646 4.638 1.546 7.05-1.233l27.146 1.762c1.204 2.815 4.277 7.624 8.285 5.64a3.005 3.005 0 0 0 4.011-2c1.654.375 2.748-1.68 2.158-3.111 1.049-1.513 1.474-3.276.529-5.288.419-3.014-2.279-7.524-5.849-7.36.92-3.574 1.841-8.768.83-11.718.157-.974-.31-2.509-1.213-3.545.26-.764.084-2.65-.715-3.288-.016-1.044-1.03-2.835-2.043-3.878-1.007-3.896-3.075-6.67-5.952-9.569-.97-1.266-1.878-3.591-4.095-3.299.262-1.435-.91-3.556-2.954-2.872-.856-1.871-2.959-3.556-4.75-2.81-1.28-3.187-5.552-3.819-7.455-2.643-2.754-1.866-7.067-2.05-9.385-.24-2.242-1.56-5.543-1.44-8.594-.072-2.696-1-5.703-1.628-8.461.176-3.994-.911-6.43.046-8.99 1.94-3.422-.726-7.467-.765-9.518 1.938-.805-2.112-5.138-3.979-8.285-.352-1.78-4.023-7.238-4.742-10.576-1.41-1.141-2.61-4.588-3.663-7.1-.976.459-3.86-2.135-5.353-4.667-5.349 1.364-3.442-1.478-7.935-6.277-7.747.81-4.11-.667-6.554-4.342-6.552 1.058-3.65-1.834-7.861-5.993-7.58 1.01-1.89-.846-4.403-2.997-4.582.19-2.8.04-5.45-5.64-5.641-.105-2.805-4.039-3.975-6.699-1.234-.436-3.119-5.145-5.56-6.345-1.234-2.107-1.977-4.264-3.068-6.698.705-2.941-.608-4.312.709-3.93 3.091-2.854-.716-4.168 1.893-3.198 3.643z" style="color:#000;fill:#fff;fill-opacity:1;fill-rule:evenodd;stroke:#000;stroke-width:1px;stroke-linecap:butt;stroke-linejoin:round;marker:none;marker-start:none;marker-mid:none;marker-end:none;stroke-miterlimit:4;stroke-dashoffset:0;stroke-opacity:1;visibility:visible;display:inline;overflow:visible;enable-background:accumulate" transform="translate(-17.811 -805.836)"/><path d="M62.928 46.998c3.9 13.682 13.727 26.198 19.918 26.44 2.05-9.54-2.908-24.105-13.044-27.41" transform="translate(-17.811 -1.505)" style="opacity:1;color:#000;fill:#fff;fill-opacity:1;fill-rule:evenodd;stroke:#000;stroke-width:1px;stroke-linecap:round;stroke-linejoin:round;marker:none;marker-start:none;marker-mid:none;marker-end:none;stroke-miterlimit:4;stroke-dasharray:none;stroke-dashoffset:0;stroke-opacity:1;visibility:visible;display:inline;overflow:visible;enable-background:accumulate"/><path d="M44.076 89.784c.79-2.649 2.957-5.697 4.133-7.268" transform="translate(-17.811 -1.505)" style="opacity:1;color:#000;fill:none;fill-opacity:.75;fill-rule:evenodd;stroke:#000;stroke-width:1px;stroke-linecap:round;stroke-linejoin:miter;marker:none;marker-start:none;marker-mid:none;marker-end:none;stroke-miterlimit:4;stroke-dasharray:none;stroke-dashoffset:0;stroke-opacity:1;visibility:visible;display:inline;overflow:visible;enable-background:accumulate"/><path d="M46.881 873.044c.541-2.773 4.23-7.191 7.175-8.796" style="opacity:1;color:#000;fill:none;fill-opacity:.75;fill-rule:evenodd;stroke:#000;stroke-width:1px;stroke-linecap:round;stroke-linejoin:miter;marker:none;marker-start:none;marker-mid:none;marker-end:none;stroke-miterlimit:4;stroke-dasharray:none;stroke-dashoffset:0;stroke-opacity:1;visibility:visible;display:inline;overflow:visible;enable-background:accumulate" transform="translate(-17.811 -805.836)"/><path d="M67.334 69.78a3.04 2.082 0 1 1-6.08 0 3.04 2.082 0 1 1 6.08 0z" transform="matrix(.59743 -.53247 .41033 .4604 -33.238 64.61)" style="opacity:1;color:#000;fill:none;fill-opacity:.75;fill-rule:evenodd;stroke:#000;stroke-width:1.42231417;stroke-linecap:butt;stroke-linejoin:miter;marker:none;marker-start:none;marker-mid:none;marker-end:none;stroke-miterlimit:4;stroke-dasharray:none;stroke-dashoffset:0;stroke-opacity:1;visibility:visible;display:inline;overflow:visible;enable-background:accumulate"/><path d="M81.682 1009.88c1.316.48 2.746.79 3.052.016.467-.776 3.679-5.655 4.509-6.767-.83 1.112-4.042 5.991-4.509 6.767-.306.774-.54 3.585-.477 4.97.067 1.474 8.724 1.421 9.734-1.103 1.053-2.631 2.414-9.907 2.986-11.755.546-1.769 1.931-2.561 2.815-2.457.889.105 3.675 2.473 3.77-.425.144-4.569-.671-3.226-.484-17.061.187-13.835 1.007-26.935 1.495-38.015.489-11.077-3.759-14.187-8.971-14.063-5.216.123-9.779 6.537-8.354 12.442 1.405 5.822 3.333 10.528 6.482 23.183 3.094 12.439 4.06 24.96 1.407 27.802-2.694 2.886-8.628 8.84-10.08 10.272-1.454 1.431-4.798 5.674-3.375 6.193z" style="fill:#fff;fill-opacity:1;fill-rule:evenodd;stroke:#000;stroke-width:1px;stroke-linecap:butt;stroke-linejoin:round;stroke-opacity:1" transform="translate(-17.811 -805.836)"/><path d="M192.409 900.53c6.938 2.223 4.02 27.738 4.934 35.229.926 7.577 4.934 12.663 7.905 12.346 3.058-.327 6.339 1.631 4.291 4.316-2.09 2.74-3.771 10.137-4.242 18.062-.466 7.85-.154 20.62-.932 22.024-.764 1.379-2.99.21-3.344-.87-.349-1.065-4.235 2.37-5.4 3.935-1.33 1.783 1.198 9.832-.517 12.731-1.73 2.927-9.614 6.568-10.191 3.604-.575-2.954.11-4.514.498-5.413.41-.953 3.74-6.902 4.57-8.014-.83 1.112-4.16 7.061-4.57 8.014-.387.899-1.549 2.145-3.177 1.478-1.607-.659 1.938-7.757 3.312-9.185 1.342-1.396 6.129-6.931 9.27-10.272 3.112-3.308 6.94-31.944 2.145-35.03-4.767-3.068-12.543-4.448-23.626-10.96-11.11-6.527-8.765-18.668-13.89-23.316" style="fill:#fff;fill-opacity:1;fill-rule:evenodd;stroke:#000;stroke-width:1px;stroke-linecap:round;stroke-linejoin:round;stroke-opacity:1" transform="translate(-17.811 -805.836)"/></svg>
